images/social/reddit.svg

<svg xmlns="http://www.w3.org/2000/svg" width="299.69" height="251.24" viewBox="0 0 299.69 251.24"><defs><style>.a{fill:#333;}</style></defs><title>reddit</title><path class="a" d="M166.81,29.78c.64-2.83,3.2-5.34,6.17-5.36,20.5,5.22,41.19,9.68,61.72,14.74a24.75,24.75,0,0,1,12-11.24A23.23,23.23,0,1,1,256,72.58c-11.95.31-22.78-9.76-23.46-21.68-18.56-4.4-37.14-8.68-55.68-13.15C170.1,59,163.5,80.32,156.6,101.52c31.95,1.15,64.43,9.43,90.88,27.89,7-8.55,18.78-12.84,29.59-10.22,13,2.78,23.29,15.39,22.81,28.81.34,11.92-7.72,23-18.61,27.44,4,16,0,33.3-9,46.91-11.56,17.59-29.54,30-48.57,38.35a177.74,177.74,0,0,1-51.47,13.47,175,175,0,0,1-45.27,0c-20.25-2.24-40.28-7.56-58.55-16.65-17-8.53-32.87-20.58-43-37-8.37-13.44-11.73-30.23-7.73-45.68A30.2,30.2,0,0,1,3.82,162.08a29.44,29.44,0,0,1,48.29-33.19c26.88-18.44,59.75-26.53,92-27.45q11.34-35.83,22.67-71.66M97.37,150.56c-9,2.36-15.91,11.11-15.84,20.46A21.51,21.51,0,0,0,92,190a21.63,21.63,0,0,0,32.74-17.88,21.68,21.68,0,0,0-27.39-21.53m94,0C181,153.2,173.7,164.42,175.75,175c1.49,10.09,11,18.34,21.29,18,9,.33,17.58-5.91,20.47-14.37a21.67,21.67,0,0,0-26.17-28M101.3,223c-3.74,1.74-4.5,7.35-1.31,10,11.27,11.14,27.72,14.42,43,15.27,17.16.56,35.53-.48,50.46-9.87,3.05-2.15,6.39-4.31,8.31-7.6,2.05-4.14-2.28-9.38-6.7-8.29-2.31.49-3.81,2.44-5.59,3.81-6.49,5.31-14.84,7.65-23,8.91a121.71,121.71,0,0,1-33.51-.11c-8.84-1.39-17.87-4.3-24.45-10.65A6,6,0,0,0,101.3,223Z" transform="translate(-0.2 -24.42)"/></svg>

<?xml version="1.0" encoding="UTF-8" ?>
<!DOCTYPE svg PUBLIC "-//W3C//DTD SVG 1.1//EN" "http://www.w3.org/Graphics/SVG/1.1/DTD/svg11.dtd">
<svg width="300pt" height="300pt" viewBox="0 0 300 300" version="1.1" xmlns="http://www.w3.org/2000/svg">
<g>
<path fill="#fff" opacity="1.00" d=" M 166.81 29.78 C 167.45 26.95 170.01 24.44 172.98 24.42 C 193.48 29.64 214.17 34.10 234.70 39.16 C 237.41 34.28 241.48 30.03 246.73 27.92 C 254.73 24.43 264.64 26.06 271.10 31.92 C 277.81 37.71 280.66 47.53 277.98 55.99 C 275.28 65.55 265.88 72.53 255.98 72.58 C 244.03 72.89 233.20 62.82 232.52 50.90 C 213.96 46.50 195.38 42.22 176.84 37.75 C 170.10 59.01 163.50 80.32 156.60 101.52 C 188.55 102.67 221.03 110.95 247.48 129.41 C 254.47 120.86 266.26 116.57 277.07 119.19 C 290.11 121.97 300.36 134.58 299.88 148.00 C 300.22 159.92 292.16 171.02 281.27 175.44 C 285.28 191.44 281.31 208.74 272.29 222.35 C 260.73 239.94 242.75 252.33 223.72 260.70 C 207.41 267.85 189.93 272.18 172.25 274.17 C 157.26 276.13 141.98 276.17 126.98 274.21 C 106.73 271.97 86.70 266.65 68.43 257.56 C 51.41 249.03 35.56 236.98 25.47 220.60 C 17.10 207.16 13.74 190.37 17.74 174.92 C 11.93 172.19 6.86 167.78 3.82 162.08 C -1.77 152.19 -0.81 139.04 6.19 130.09 C 12.67 121.36 24.26 116.86 34.94 118.94 C 41.61 120.11 47.73 123.74 52.11 128.89 C 78.99 110.45 111.86 102.36 144.14 101.44 C 151.70 77.55 159.28 53.67 166.81 29.78 M 97.37 150.56 C 88.37 152.92 81.46 161.67 81.53 171.02 C 81.24 178.63 85.48 186.13 92.02 189.97 C 98.61 194.02 107.43 194.04 114.07 190.08 C 120.38 186.43 124.61 179.39 124.76 172.09 C 124.98 166.29 122.69 160.46 118.61 156.34 C 113.29 150.75 104.79 148.34 97.37 150.56 M 191.34 150.56 C 180.96 153.20 173.70 164.42 175.75 174.98 C 177.24 185.07 186.77 193.32 197.04 192.97 C 206.04 193.30 214.62 187.06 217.51 178.60 C 220.25 171.06 218.29 162.09 212.63 156.40 C 207.32 150.77 198.79 148.32 191.34 150.56 M 101.30 223.02 C 97.56 224.76 96.80 230.37 99.99 232.99 C 111.26 244.13 127.71 247.41 142.98 248.26 C 160.14 248.82 178.51 247.78 193.44 238.39 C 196.49 236.24 199.83 234.08 201.75 230.79 C 203.80 226.65 199.47 221.41 195.05 222.50 C 192.74 222.99 191.24 224.94 189.46 226.31 C 182.97 231.62 174.62 233.96 166.48 235.22 C 155.38 236.71 144.06 236.71 132.97 235.11 C 124.13 233.72 115.10 230.81 108.52 224.46 C 106.69 222.52 103.72 221.68 101.30 223.02 Z" />
</g>
</svg>
